X:327
T: "Die Luetzelburg"
N: Z1007
O: Europa, Mitteleuropa, Deutschland
R: Romanze, Ballade, Melusina - Sage
M: 3/8
L: 1/16
K: Bb
F2 | B4B2 | c2B2A2 | B2A2G2 | F4
ce | d2c2dc | B3dcF | F2B2A2 | B4
Bd | e4d2 | c2B2c2 | d4c2 | B4
B2 | c2d2c2 | B2G2c2 | B3cBA | G4
cF | B4A2 | B2c2d2 | c2B2A2 | B4

